X:1
T:Title
%%score { ( 1 3 ) | ( 2 4 ) }
L:1/8
M:4/4
K:Eb
V:1 treble nm="Grand Piano"
V:3 treble 
V:2 bass 
V:4 bass 
V:1
 z4 z2[Q:1/4=94] [EG][FA] | [GB][GB][GB][GB] [Ac][GB]EF |[M:3/4] GG G>A G2 |[M:1/4] G[FA] | %4
[M:4/4] [GB][GB][GB][GB] [Ac][GB][FA]G |[M:3/4] FF F>G [DF]2 |[M:1/4] [DF][DG] | %7
[M:4/4] [DA][B,EA][B,FA][B,GB] [B,FA][B,EG][B,EG][=B,FG] | %8
[M:3/4] [CEc][CEG] [CE=A][=A,EF] [B,DB]2 |[M:1/4] [DB][B,FB] | %10
[M:9/8] [Ee][Ae][Ge] ddc- c2 [Ec]/[Ec]/ |[M:7/8] [EB][E=A][D_A] [DF] E3 |[M:1/4] G[FA] | %13
[M:4/4] B6 z2 | c4 A2 z2 | B6 z2 | F2 F4 z2 |[M:3/4] B6 |[M:1/4] AB |[M:4/4] c4 A2 z2 | B6 z2 | %21
[M:3/4] [G,E]6 |] %22
V:2
 z4 z2 [E,B,][E,B,] | [E,E][E,E][E,E][E,E] [E,E][E,E][E,G,][E,A,E] | %2
[M:3/4] [E,B,E][E,B,E] [E,B,E]>[E,CE] [E,B,E]2 |[M:1/4] [E,B,E][E,B,] | %4
[M:4/4] [E,E][E,E][E,E][E,E] [E,E][E,E][D,B,][E,B,E] | %5
[M:3/4] [F,B,D][F,B,D] [F,=A,C]>[F,A,E] [B,,B,]2 |[M:1/4] [B,,A,][B,,G,] | %7
[M:4/4] [B,,F,]C,D,D, E,E,E,D, |[M:3/4] C,C, F,F, B,,2 |[M:1/4] B,A, | %10
[M:9/8] [G,B,][F,B,][E,B,][K:treble] [G,=B,F][A,B,F][K:bass][A,CE]- [A,CE]2 [A,,A,]/[A,,A,]/ | %11
[M:7/8] [B,,G,][B,,_G,][B,,F,] [B,,A,] [E,=G,]3 |[M:1/4] [E,B,E][E,B,] | %13
[M:4/4] [E,E][E,E][E,E][E,E] [E,E][E,B,E][E,F,E][E,G,E] | %14
 [A,,A,][A,,A,][A,,A,][A,,A,] A,,A,,[A,,A,][C,A,] | %15
 [E,G,E][E,G,][E,G,][E,G,] [E,B,][E,B,E][D,B,][E,B,] | z4 B,2 z2 | %17
[M:3/4] E,[E,G,] [E,G,][E,G,] [E,G,][E,B,E] |[M:1/4] [E,F,E][E,G,E] | %19
[M:4/4] [A,,A,][A,,A,][A,,A,][A,,A,] A,,A,,[A,,A,][A,,A,] | G,2 z2 z4 |[M:3/4] E,6 |] %22
V:3
 x8 | x8 |[M:3/4] x6 |[M:1/4] x2 |[M:4/4] x8 |[M:3/4] x6 |[M:1/4] x2 |[M:4/4] x8 |[M:3/4] x6 | %9
[M:1/4] x2 |[M:9/8] x9 |[M:7/8] x7 |[M:1/4] x2 |[M:4/4] GGGG GGAB | EEEE [CE][CE][Ec][Ec] | %15
 z EEE GG[FA][EG] | DD z E D2 [B,EG][B,FA] |[M:3/4] [B,G]E EE EG |[M:1/4] x2 | %19
[M:4/4] EEEE [CE][CE][Ec][Ec] | E2 C2 D[CDA][B,DG][A,DF] |[M:3/4] x6 |] %22
V:4
 x8 | x8 |[M:3/4] x6 |[M:1/4] x2 |[M:4/4] x8 |[M:3/4] x6 |[M:1/4] x2 |[M:4/4] x8 |[M:3/4] x6 | %9
[M:1/4] x2 |[M:9/8] x3[K:treble] x2[K:bass] x4 |[M:7/8] x7 |[M:1/4] x2 |[M:4/4] x8 | x8 | x8 | %16
 [B,,B,][B,,B,][D,B,][F,=A,] z _A,G,F, |[M:3/4] x6 |[M:1/4] x2 |[M:4/4] x8 | %20
 B,,2- [B,,-E,]2 [B,,F,]B,,B,,B,, |[M:3/4] x6 |] %22

